X:241
T: ES WOLLT EIN MAEDL WOL FRUEH AUFSTEHN
N: E0121
O: Europa, Mitteleuropa, Oesterreich
R: erzaehlendes Volks - Lied, Schalk -, Schelmen - Lied, Liebe
M: 2/4
L: 1/16
K: G
D2 | G2G2GABG | A2F2D2
D2 | G2G2A2d2 | B4z2
GA | B2G2B2G2 | c2B2A4
F2A2D2c2 | B2A2G2
D2 | B2B2A2A2 | G4z2

